src/pos-icons/link-variant.svg

<svg height="24" viewBox="0 0 24 24" width="24" xmlns="http://www.w3.org/2000/svg"><path d="m10.59 13.41c.41.39.41 1.03 0 1.42-.39.39-1.03.39-1.42 0-1.95-1.95-1.95-5.12 0-7.07l3.54-3.54c1.95-1.95 5.12-1.95 7.07 0s1.95 5.12 0 7.07l-1.49 1.49c.01-.82-.12-1.64-.4-2.42l.47-.48c1.18-1.17 1.18-3.07 0-4.24-1.17-1.18-3.07-1.18-4.24 0l-3.53 3.53c-1.18 1.17-1.18 3.07 0 4.24m2.82-4.24c.39-.39 1.03-.39 1.42 0 1.95 1.95 1.95 5.12 0 7.07l-3.54 3.54c-1.95 1.95-5.12 1.95-7.07 0s-1.95-5.12 0-7.07l1.49-1.49c-.01.82.12 1.64.4 2.43l-.47.47c-1.18 1.17-1.18 3.07 0 4.24 1.17 1.18 3.07 1.18 4.24 0l3.53-3.53c1.18-1.17 1.18-3.07 0-4.24-.41-.39-.41-1.03 0-1.42z"/></svg>

<?xml version="1.0" encoding="UTF-8"?><!DOCTYPE svg PUBLIC "-//W3C//DTD SVG 1.1//EN" "http://www.w3.org/Graphics/SVG/1.1/DTD/svg11.dtd"><svg xmlns="http://www.w3.org/2000/svg" xmlns:xlink="http://www.w3.org/1999/xlink" version="1.1" id="mdi-link-variant" width="24" height="24" viewBox="0 0 24 24"><path d="M10.59,13.41C11,13.8 11,14.44 10.59,14.83C10.2,15.22 9.56,15.22 9.17,14.83C7.22,12.88 7.22,9.71 9.17,7.76V7.76L12.71,4.22C14.66,2.27 17.83,2.27 19.78,4.22C21.73,6.17 21.73,9.34 19.78,11.29L18.29,12.78C18.3,11.96 18.17,11.14 17.89,10.36L18.36,9.88C19.54,8.71 19.54,6.81 18.36,5.64C17.19,4.46 15.29,4.46 14.12,5.64L10.59,9.17C9.41,10.34 9.41,12.24 10.59,13.41M13.41,9.17C13.8,8.78 14.44,8.78 14.83,9.17C16.78,11.12 16.78,14.29 14.83,16.24V16.24L11.29,19.78C9.34,21.73 6.17,21.73 4.22,19.78C2.27,17.83 2.27,14.66 4.22,12.71L5.71,11.22C5.7,12.04 5.83,12.86 6.11,13.65L5.64,14.12C4.46,15.29 4.46,17.19 5.64,18.36C6.81,19.54 8.71,19.54 9.88,18.36L13.41,14.83C14.59,13.66 14.59,11.76 13.41,10.59C13,10.2 13,9.56 13.41,9.17Z" /></svg>
